X: 4
T: Lux solemnis / Repleti sunt omnes
N: Derived from Reg2006-Lux_solemnis__Repleti_sunt_omnes.krn
C: Johannes Regis
%%abc-version 2.0
%%abcx-abcm2ps-target-version 5.9.1 (29 Sep 2008)
%%abc-creator hum2abc beta
%%abcx-conversion-date 2019/02/17 07:31:25
%%abc-edited-by Jesse Rodin
%%abc-edited-by Jesse Rodin 8/13/2013
%%abcx-initial-encoding-date 2013/08/14/
%%humdrum-veritas 341249035
%%humdrum-veritas-data 3738280436
%%linebreak <none>
%%barnumbers 0
L: 1/4
M: 3/1
Q: 1/2=120
V: 1 clef=treble
V: 2 clef=treble
V: 3 clef=treble-8
V: 4 clef=bass
V: 5 clef=bass
K: C
[V:1] z12 | 
[V:2] D12 | 
[V:3] z12 | 
[V:4] D,8D,4 | 
[V:5] D,12- | 
[V:1] A12 | 
[V:2] D4F6E2 | 
[V:3] z12 | 
[V:4] F,2G,2A,4A,4 | 
[V:5] D,8D,4 | 
[V:1] A4c6B2 | 
[V:2] C4E6D2 | 
[V:3] z12 | 
[V:4] A,8G,4- | 
[V:5] A,,8C,4- | 
[V:1] G4B6A2 | 
[V:2] E4G6F2 | 
[V:3] z12 | 
[V:4] G,12 | 
[V:5] C,4G,,8 | 
[V:1] A2G2F4A4- | 
[V:2] F4D6^C2 | 
[V:3] z12 | 
[V:4] A,8A,4 | 
[V:5] D,12 | 
[V:1] A2G2E4A4 | 
[V:2] ^C8E4- | 
[V:3] z12 | 
[V:4] A,8A,4 | 
[V:5] A,,12 | 
[V:1] G8E4- | 
[V:2] E2E4F2G4 | 
[V:3] z12 | 
[V:4] E,8E,4 | 
[V:5] C,12- | 
[V:1] E2E4F2G4 | 
[V:2] G4G2G2E4 | 
[V:3] z12 | 
[V:4] G,8G,4 | 
[V:5] C,12- | 
[V:1] G4G2G2E4 | 
[V:2] E8C4- | 
[V:3] z12 | 
[V:4] E,4G,8 | 
[V:5] C,12 | 
[V:1] F6A3GF2 | 
[V:2] C4C4F4 | 
[V:3] z12 | 
[V:4] A,8A,4 | 
[V:5] F,,12 | 
[V:1] E12 | 
[V:2] G3FE6D2 | 
[V:3] z12 | 
[V:4] G,4G,4A,4 | 
[V:5] C,8C,4 | 
[V:1] z4z4E4 | 
[V:2] D6^C2C2B,2 | 
[V:3] z12 | 
[V:4] F,4E,8 | 
[V:5] D,4A,,8 | 
[V:1] F4F4D4 | 
[V:2] D6C2A,4 | 
[V:3] z12 | 
[V:4] D,12 | 
[V:5] D,,12 | 
[V:1] E8E4 | 
[V:2] A,4z4z4 | 
[V:3] E12 | 
[V:4] z4C,4C,4 | 
[V:5] A,,12 | 
[V:1] z4D4D4 | 
[V:2] z12 | 
[V:3] G12 | 
[V:4] D,4D,4D,4 | 
[V:5] B,,12 | 
[V:1] C8E4 | 
[V:2] E8C4 | 
[V:3] A12 | 
[V:4] E,12 | 
[V:5] A,,12- | 
[V:1] E4A8 | 
[V:2] A,4C2D2E4 | 
[V:3] c12 | 
[V:4] E,4z4z4 | 
[V:5] A,,12 | 
[V:1] A4c6B2 | 
[V:2] F6A4G2 | 
[V:3] A12 | 
[V:4] F,12 | 
[V:5] F,,12- | 
[V:1] A8A4 | 
[V:2] F2C2F4F4 | 
[V:3] c12- | 
[V:4] F,12 | 
[V:5] F,,12 | 
[V:1] G8z4 | 
[V:2] E4z4G4- | 
[V:3] c12 | 
[V:4] G,12 | 
[V:5] C,12 | 
[V:1] _B8A4 | 
[V:2] G4G4F4 | 
[V:3] d12 | 
[V:4] G,8D,4 | 
[V:5] G,,8z4 | 
[V:1] A4G4E4 | 
[V:2] F4E4C2D2 | 
[V:3] c8c4- | 
[V:4] F,4C,8 | 
[V:5] z12 | 
[V:1] A6^G2G2^F2 | 
[V:2] E8E4 | 
[V:3] c4B8 | 
[V:4] A,,4E,8 | 
[V:5] z12 | 
[V:1] A12 | 
[V:2] E8E4 | 
[V:3] A8c4 | 
[V:4] A,,8A,4 | 
[V:5] z12 | 
[V:1] z12 | 
[V:2] F4D4D3C | 
[V:3] A2B4A2G2A2 | 
[V:4] F,2D,2F,3E,D,2F,2 | 
[V:5] D,4D,3C,B,,2A,,2 | 
[V:1] z12 | 
[V:2] B,2A,2B,2D2z2A,2 | 
[V:3] B2c2B2G4^F2 | 
[V:4] G,E,2F,G,2D,4C,2 | 
[V:5] G,,2A,,2G,,2B,,2A,,4 | 
[V:1] z12 | 
[V:2] B,3CD2E2DB,2C | 
[V:3] G12 | 
[V:4] D,4B,,3C,D,2E,2 | 
[V:5] G,,8G,,4 | 
[V:1] z12 | 
[V:2] D2EG2FD4^C2 | 
[V:3] z12 | 
[V:4] F,2G,2A,2F,2E,4 | 
[V:5] z4D,,4A,,4 | 
[V:1] A12 | 
[V:2] D12 | 
[V:3] A12 | 
[V:4] D,8D,4 | 
[V:5] D,,12 | 
[V:1] E8G4- | 
[V:2] z4z4E4 | 
[V:3] c8B4- | 
[V:4] z4A,4G,4 | 
[V:5] A,,8E,,4- | 
[V:1] G2G4FED4 | 
[V:2] E4D4G,2D2- | 
[V:3] B12 | 
[V:4] G,8z2G,2 | 
[V:5] E,,4G,,8 | 
[V:1] A4G2G4^F2 | 
[V:2] D2D2B,2G,2A,4 | 
[V:3] z12 | 
[V:4] F,4G,4D,4 | 
[V:5] D,,4z4z4 | 
[V:1] G4_B6A2 | 
[V:2] G,4z2D4E2 | 
[V:3] G12 | 
[V:4] G,,8G,4 | 
[V:5] z4z4G,,4 | 
[V:1] A8c4 | 
[V:2] F4E8 | 
[V:3] c12 | 
[V:4] A,6G,2E,2F,2 | 
[V:5] F,,4C,8 | 
[V:1] B4A4G4 | 
[V:2] z4F4G4 | 
[V:3] d8c4- | 
[V:4] G,4A,4z4 | 
[V:5] G,,4D,4E,4 | 
[V:1] F4E4z2G2- | 
[V:2] A4G2F2E4 | 
[V:3] c12 | 
[V:4] z4G,4G,4 | 
[V:5] F,4C,8 | 
[V:1] G2G2G2G4G2 | 
[V:2] D4D4D4- | 
[V:3] B12 | 
[V:4] G,8G,3F, | 
[V:5] G,,12 | 
[V:1] F2E4A4^G2 | 
[V:2] D2C2A,4B,4 | 
[V:3] z12 | 
[V:4] D,2A,4G,F,E,4 | 
[V:5] z12 | 
[V:1] A4A4A4 | 
[V:2] A,4z4E4 | 
[V:3] A12 | 
[V:4] A,,8A,,4 | 
[V:5] z4z4A,,4 | 
[V:1] G12 | 
[V:2] E8E4- | 
[V:3] B12 | 
[V:4] E,8E,4 | 
[V:5] E,,8E,,4 | 
[V:1] z4A4B2G2 | 
[V:2] E4A,4z2D2- | 
[V:3] c8B4- | 
[V:4] E,4F,4G,4- | 
[V:5] A,,4A,,4G,,4- | 
[V:1] G12 | 
[V:2] D2D2E2D3CB,A, | 
[V:3] B12 | 
[V:4] G,12 | 
[V:5] G,,12 | 
[V:1] F4E8 | 
[V:2] A,2D2ED^CB,C4 | 
[V:3] z12 | 
[V:4] D,4G,8 | 
[V:5] z12 | 
[V:1] D8D4 | 
[V:2] D4z4F4 | 
[V:3] A12 | 
[V:4] D,12 | 
[V:5] D,,12 | 
[V:1] D6C2A,4 | 
[V:2] G2G4F2E4 | 
[V:3] B8c4 | 
[V:4] z12 | 
[V:5] G,,8A,,4 | 
[V:1] z12 | 
[V:2] D4D3EF2G2 | 
[V:3] d3cB2A2B2c2- | 
[V:4] z12 | 
[V:5] B,,3C,D,3C,D,2E,2 | 
[V:1] z12 | 
[V:2] E2D2C2A,2B,4 | 
[V:3] c2B3AA4^G2 | 
[V:4] C,2D,2E,2F,2D,4 | 
[V:5] A,,2B,,2C,2D,2B,,4 | 
[V:1] z12 | 
[V:2] C2D2E4z4 | 
[V:3] A12 | 
[V:4] E,8C,4 | 
[V:5] A,,12 | 
[V:1] A8G4 | 
[V:2] F4F4E4 | 
[V:3] z12 | 
[V:4] D,4F,4C,4- | 
[V:5] D,,4z4z4 | 
[V:1] E4A4A4 | 
[V:2] G4F3ED2C2 | 
[V:3] z12 | 
[V:4] C,4D,8 | 
[V:5] z12 | 
[V:1] G4z2G2A2c2- | 
[V:2] B,4E6C2 | 
[V:3] z12 | 
[V:4] E,4C,4A,,4 | 
[V:5] z12 | 
[V:1] c2B2AGA4^G2 | 
[V:2] E4C2A,2B,4 | 
[V:3] z12 | 
[V:4] A,,2G,,2A,,4E,4 | 
[V:5] z12 | 
[V:1] A8z4 | 
[V:2] A,4z2E3FG2 | 
[V:3] z12 | 
[V:4] z2A,,3B,,C,2D,2E,2 | 
[V:5] z12 | 
[V:1] z12 | 
[V:2] A2F2E2D4^C2 | 
[V:3] z12 | 
[V:4] F,2A,3G,F,2E,4 | 
[V:5] z12 | 
[V:1] A4F4E4 | 
[V:2] D4D4C2E2- | 
[V:3] z12 | 
[V:4] D,8A,,4 | 
[V:5] z12 | 
[V:1] C2D2E2E2F2G2 | 
[V:2] E2F2E2C4B,2 | 
[V:3] z12 | 
[V:4] z4A,6G,2 | 
[V:5] z12 | 
[V:1] A2F2E3FG2A2 | 
[V:2] A,4z4z4 | 
[V:3] z12 | 
[V:4] F,2D,2C,2A,,2E,3F, | 
[V:5] z12 | 
[V:1] B2c2A3GGFG2 | 
[V:2] z12 | 
[V:3] z12 | 
[V:4] G,2A,2F,2E,4E,2 | 
[V:5] z12 | 
[V:1] F2E3DD4^C2 | 
[V:2] z12 | 
[V:3] z12 | 
[V:4] D,2C,2G,2F,2E,4 | 
[V:5] z12 | 
[V:1] D4z4z4 | 
[V:2] D4C2D2E2E2 | 
[V:3] z12 | 
[V:4] D,4z4z4 | 
[V:5] D,4E,2F,2E,2C,2 | 
[V:1] z4z4A4 | 
[V:2] F4E4A,4 | 
[V:3] z12 | 
[V:4] A,4A,4F,4 | 
[V:5] D,4A,,4z4 | 
[V:1] G2A2B2B2c4 | 
[V:2] z4z4E3F | 
[V:3] z12 | 
[V:4] E,2F,2G,4A,4 | 
[V:5] C,4B,,4A,,4 | 
[V:1] B4A4z4 | 
[V:2] G2G2A2A2G2E2- | 
[V:3] z12 | 
[V:4] G,4F,2D,2E,3F, | 
[V:5] E,4F,4C,4- | 
[V:1] z12 | 
[V:2] EDD4G4^F2 | 
[V:3] z12 | 
[V:4] G,2F,2G,4A,4 | 
[V:5] C,2D,2B,,2G,,2D,4 | 
[V:1] G3AB2B2A2c2- | 
[V:2] G4z2G2F2E2 | 
[V:3] z12 | 
[V:4] G,8z4 | 
[V:5] G,,8A,,4 | 
[V:1] c2B2A2G2A3G | 
[V:2] G3FF2E2F2D2 | 
[V:3] z12 | 
[V:4] G,4D,2E,2D,4 | 
[V:5] G,,4z4z4 | 
[V:1] A2B3AG4^F2 | 
[V:2] C2D2G,4A,4 | 
[V:3] z12 | 
[V:4] z2G,4E,2D,4 | 
[V:5] z12 | 
[V:1] G8z4 | 
[V:2] G,4B,3CD2E2 | 
[V:3] z12 | 
[V:4] G,,8B,,3C, | 
[V:5] z12 | 
[V:1] z12 | 
[V:2] F2E2C2z2E3F | 
[V:3] z12 | 
[V:4] D,2E,2F,2E,2C,2z2 | 
[V:5] z12 | 
[V:1] z12 | 
[V:2] G2A2G2E2F4 | 
[V:3] z12 | 
[V:4] E,3F,G,2A,4D,2- | 
[V:5] z12 | 
[V:1] z12 | 
[V:2] F2E3DD4^C2 | 
[V:3] z12 | 
[V:4] D,2C,2D,2F,2E,4 | 
[V:5] z12 | 
[V:1] z12 | 
[V:2] D12 | 
[V:3] z12 | 
[V:4] D,4z2D,4D,2 | 
[V:5] D,8B,,4 | 
[V:1] z12 | 
[V:2] z12 | 
[V:3] z12 | 
[V:4] E,2F,2G,3F,E,D,F,2 | 
[V:5] G,,2A,,2B,,2C,4D,2 | 
[V:1] z12 | 
[V:2] z12 | 
[V:3] z12 | 
[V:4] G,2E,4A,4^G,2 | 
[V:5] E,4C,2D,2B,,4 | 
[V:1] A6G2A4 | 
[V:2] ^C6D2E2F2 | 
[V:3] z12 | 
[V:4] A,4z4z4 | 
[V:5] A,,12 | 
[V:1] B4c3BB2A2- | 
[V:2] G4E2A3GF2 | 
[V:3] z12 | 
[V:4] z12 | 
[V:5] z12 | 
[V:1] A2G2A2F2E4 | 
[V:2] EDE2A,2D4^C2 | 
[V:3] z12 | 
[V:4] z12 | 
[V:5] z12 | 
[V:1] D4z4z4 | 
[V:2] D4z4z4 | 
[V:3] z12 | 
[V:4] D,3E,F,2G,2F,2E,2- | 
[V:5] D,6B,,2D,2C,2 | 
[V:1] z12 | 
[V:2] z12 | 
[V:3] z12 | 
[V:4] E,2E,2F,2A,4^G,2 | 
[V:5] A,,3G,,A,,2C,2B,,4 | 
[V:1] A6c2B2A2 | 
[V:2] E6A3GFE | 
[V:3] z12 | 
[V:4] A,4z4z4 | 
[V:5] A,,8z4 | 
[V:1] B2G4F2E4 | 
[V:2] GFE3DD4^C2 | 
[V:3] z12 | 
[V:4] z12 | 
[V:5] z12 | 
[V:1] D4z4z4 | 
[V:2] D4z4z4 | 
[V:3] z12 | 
[V:4] D,3E,F,2E,3D,C,2 | 
[V:5] D,4D,2C,2A,,2E,2- | 
[V:1] z12 | 
[V:2] z12 | 
[V:3] z12 | 
[V:4] B,,2A,,4A,3^G,G,2 | 
[V:5] E,D,C,2A,,2C,2B,,4 | 
[V:1] A4A2A2B2G2- | 
[V:2] C3DE2F2G3F | 
[V:3] z12 | 
[V:4] A,4z4z4 | 
[V:5] A,,4z4z4 | 
[V:1] G2A3GF2E4 | 
[V:2] E2F2E2D4^C2 | 
[V:3] z12 | 
[V:4] z12 | 
[V:5] z12 | 
[V:1] D4z4z4 | 
[V:2] D4z4z4 | 
[V:3] z12 | 
[V:4] D,3E,F,2F,2E,2A,2- | 
[V:5] D,4D,2D,2C,4 | 
[V:1] z12 | 
[V:2] z12 | 
[V:3] z12 | 
[V:4] A,2G,2F,2G,4E,2 | 
[V:5] A,,2C,2D,2B,,2G,,2A,,2- | 
[V:1] z12 | 
[V:2] z12 | 
[V:3] z12 | 
[V:4] F,2E,3D,D,4^C,2 | 
[V:5] A,,2G,,2A,,2F,,2E,,4 | 
[V:1] A4A4G3F | 
[V:2] D4D2F2E2C2- | 
[V:3] z12 | 
[V:4] D,4z4z4 | 
[V:5] D,,4z4z4 | 
[V:1] E2E2F2A4^G2 | 
[V:2] CB,C2A,2C2B,4 | 
[V:3] z12 | 
[V:4] z12 | 
[V:5] z12 | 
[V:1] A4z4z4 | 
[V:2] A,4z4z4 | 
[V:3] z12 | 
[V:4] A,,3B,,C,2D,2E,2F,2- | 
[V:5] A,,4A,,3B,,C,2D,2 | 
[V:1] z12 | 
[V:2] z12 | 
[V:3] z12 | 
[V:4] F,E,F,2E,2D,3^C,C,2 | 
[V:5] A,,4G,,2F,,2E,,4 | 
[V:1] A6F2E2G2 | 
[V:2] D4D2D2C2E2 | 
[V:3] z12 | 
[V:4] D,4z4z4 | 
[V:5] D,,4z4z4 | 
[V:1] A2c2B2A4^G2 | 
[V:2] F2E3DC2B,4 | 
[V:3] z12 | 
[V:4] z12 | 
[V:5] z12 | 
[V:1] A4z4z4 | 
[V:2] A,4z4z4 | 
[V:3] z12 | 
[V:4] A,4G,2A,4A,2 | 
[V:5] A,,4B,,2C,2D,2F,2 | 
[V:1] z12 | 
[V:2] z12 | 
[V:3] z12 | 
[V:4] G,2E,2F,4E,4 | 
[V:5] E,4A,,2D,4^C,2 | 
[V:1] A4G2A4A2 | 
[V:2] D3CB,2A,2C2D2 | 
[V:3] z12 | 
[V:4] D,4z4z4 | 
[V:5] D,4z4z4 | 
[V:1] G2F2E4D4 | 
[V:2] E2D4C2D2F2 | 
[V:3] z12 | 
[V:4] z12 | 
[V:5] z12 | 
[V:1] C4z4z4 | 
[V:2] E4z4z4 | 
[V:3] z12 | 
[V:4] A,4F,2G,4G,2 | 
[V:5] A,,4A,,2B,,2C,3B,, | 
[V:1] z12 | 
[V:2] z12 | 
[V:3] z12 | 
[V:4] A,2A,3G,F,2E,4 | 
[V:5] C,2D,2E,2D,4^C,2 | 
[V:1] D4F2G2A2A2 | 
[V:2] D4D2E2F3E | 
[V:3] z12 | 
[V:4] D,4z4z4 | 
[V:5] D,4z4z4 | 
[V:1] B2c4A3GF2 | 
[V:2] D2C2A,4D4 | 
[V:3] z12 | 
[V:4] z12 | 
[V:5] z12 | 
[V:1] E4E4A4 | 
[V:2] ^C4z4E4 | 
[V:3] z12 | 
[V:4] A,12 | 
[V:5] A,,12- | 
[V:1] A8F4 | 
[V:2] E4F6A2- | 
[V:3] z12 | 
[V:4] A,8A,4 | 
[V:5] A,,4D,,8 | 
[V:1] D4z4z4 | 
[V:2] A2G2F2E3DD2 | 
[V:3] z12 | 
[V:4] F,3G,A,4z2F,2 | 
[V:5] D,6C,2A,,2D,2 | 
[V:1] z4z4E4 | 
[V:2] B,2E3DD4^C2 | 
[V:3] z12 | 
[V:4] G,2A,2F,2G,2E,4 | 
[V:5] E,2C,2D,4A,,4 | 
[V:1] F4A8 | 
[V:2] D8F4 | 
[V:3] A12 | 
[V:4] D,4F,2G,2A,4 | 
[V:5] D,,12 | 
[V:1] !fermata!A8z4 | 
[V:2] !fermata!E8z4 | 
[V:3] !fermata!^c12 | 
[V:4] !fermata!A,8z4 | 
[V:5] !fermata!A,,8z4 | 
[V:1] A8A4 | 
[V:2] F6E2D4 | 
[V:3] d12 | 
[V:4] A,8A,4 | 
[V:5] D,,12 | 
[V:1] A4A4A4 | 
[V:2] ^C8E4- | 
[V:3] e12 | 
[V:4] A,8A,2G,2 | 
[V:5] A,,12 | 
[V:1] G6c4B2 | 
[V:2] E4G8 | 
[V:3] e12 | 
[V:4] E,4z4z4 | 
[V:5] C,12 | 
[V:1] B4B4A4 | 
[V:2] G8^F4 | 
[V:3] d8d4 | 
[V:4] G,8A,4 | 
[V:5] G,,8D,4- | 
[V:1] A4A4E2^F2 | 
[V:2] ^F4E2E4DC | 
[V:3] A4c6B2 | 
[V:4] ^F,4z4z4 | 
[V:5] D,4A,,8 | 
[V:1] !fermata!G8z4 | 
[V:2] !fermata!B,8z4 | 
[V:3] !fermata!d8z4 | 
[V:4] !fermata!G,8z4 | 
[V:5] !fermata!G,,8z4 | 
[V:1] G6G2G3A | 
[V:2] E4E6F2 | 
[V:3] c12 | 
[V:4] G,8G,4 | 
[V:5] C,8C,4 | 
[V:1] B4B4c4 | 
[V:2] G2F2D4E4 | 
[V:3] d8c4 | 
[V:4] G,4G,4A,3G, | 
[V:5] G,,4B,,4A,,4- | 
[V:1] A4B4G4 | 
[V:2] C4D6E2 | 
[V:3] c4B8 | 
[V:4] F,2E,2G,4G,4 | 
[V:5] A,,4G,,8 | 
[V:1] A4F2G2A4 | 
[V:2] F2G2A4F3D | 
[V:3] A12 | 
[V:4] z4z4F,4 | 
[V:5] D,12 | 
[V:1] G4z4z4 | 
[V:2] D6E2F4 | 
[V:3] B8c4 | 
[V:4] G,8A,4 | 
[V:5] G,,8F,,4 | 
[V:1] G3FE2C2D4 | 
[V:2] D4z4z4 | 
[V:3] B4A2A4^G2 | 
[V:4] G,4C,2E,2D,4 | 
[V:5] G,,4A,,2C,2B,,4 | 
[V:1] E12 | 
[V:2] E12- & A12- | 
[V:3] A12- | 
[V:4] ^C,12 | 
[V:5] A,,12- | 
[V:1] A12 ||  
[V:2] E12 & A12 ||  
[V:3] A12 ||  
[V:4] E,12 ||  
[V:5] A,,12 ||  
[V:1]  [K:C] [K:clef=treble][M:2/1]z8 | 
[V:2]  [K:C] [K:clef=treble][M:2/1]z8 | 
[V:3]  [K:C] [K:clef=treble-8][M:2/1]z8 | 
[V:4]  [K:C] [K:clef=bass][M:2/1]E,6D,2 | 
[V:5]  [K:C] [K:clef=bass][M:2/1]A,,6B,,2 | 
[V:1] z8 | 
[V:2] z8 | 
[V:3] z8 | 
[V:4] E,4F,4 | 
[V:5] C,4D,4 | 
[V:1] z8 | 
[V:2] z8 | 
[V:3] z8 | 
[V:4] G,4F,4 | 
[V:5] G,,4D,4 | 
[V:1] z8 | 
[V:2] z8 | 
[V:3] z8 | 
[V:4] E,4^C,4 | 
[V:5] C,2A,,4A,,2 | 
[V:1] z8 | 
[V:2] z8 | 
[V:3] z8 | 
[V:4] D,4C,2E,2- | 
[V:5] F,,2G,,2A,,4 | 
[V:1] z8 | 
[V:2] z8 | 
[V:3] z8 | 
[V:4] E,2F,2G,2E,2- | 
[V:5] C,2D,2E,4 | 
[V:1] z8 | 
[V:2] z8 | 
[V:3] z8 | 
[V:4] E,2A,4^G,2 | 
[V:5] C,2A,,2B,,4 | 
[V:1] z8 | 
[V:2] z8 | 
[V:3] z8 | 
[V:4] A,3G,F,4 | 
[V:5] A,,2z2D,,3E,, | 
[V:1] z8 | 
[V:2] z8 | 
[V:3] z8 | 
[V:4] D,3C,D,2E,2- | 
[V:5] F,,2G,,3F,,G,,2 | 
[V:1] z8 | 
[V:2] z8 | 
[V:3] z8 | 
[V:4] E,2C,2B,,4 | 
[V:5] E,,2A,,4^G,,2 | 
[V:1] E6D2 | 
[V:2] E6F2 | 
[V:3] z8 | 
[V:4] A,,8 | 
[V:5] A,,8 | 
[V:1] E4F4 | 
[V:2] G4A4 | 
[V:3] z8 | 
[V:4] z8 | 
[V:5] z8 | 
[V:1] G4F4 | 
[V:2] E4D4 | 
[V:3] z8 | 
[V:4] z8 | 
[V:5] z8 | 
[V:1] E4A4- | 
[V:2] ^C6F2- | 
[V:3] z8 | 
[V:4] z8 | 
[V:5] z8 | 
[V:1] A2GFG4 | 
[V:2] F2D2E4 | 
[V:3] z8 | 
[V:4] z8 | 
[V:5] z8 | 
[V:1] A4c4 | 
[V:2] A,4A,4 | 
[V:3] z8 | 
[V:4] z8 | 
[V:5] z8 | 
[V:1] B4A4 | 
[V:2] G,4C4 | 
[V:3] z8 | 
[V:4] z8 | 
[V:5] z8 | 
[V:1] A4F2G2- | 
[V:2] D2F4E2- | 
[V:3] z8 | 
[V:4] z8 | 
[V:5] z8 | 
[V:1] G2F2E4 | 
[V:2] EDD4^C2 | 
[V:3] z8 | 
[V:4] z8 | 
[V:5] z8 | 
[V:1] D8 | 
[V:2] D4z4 | 
[V:3] z8 | 
[V:4] z8 | 
[V:5] z8 | 
[V:1] z8 | 
[V:2] E6F2- | 
[V:3] z8 | 
[V:4] A,,4A,,4 | 
[V:5] z8 | 
[V:1] z8 | 
[V:2] F4E4- | 
[V:3] z8 | 
[V:4] D,4C,4 | 
[V:5] z8 | 
[V:1] z8 | 
[V:2] E2G6 | 
[V:3] z8 | 
[V:4] E,4E,4 | 
[V:5] z8 | 
[V:1] A4A4 | 
[V:2] F4F4 | 
[V:3] z8 | 
[V:4] D,4A,4 | 
[V:5] z8 | 
[V:1] c4c4 | 
[V:2] E8 | 
[V:3] z8 | 
[V:4] A,4A,4 | 
[V:5] z8 | 
[V:1] B4B4 | 
[V:2] z8 | 
[V:3] z8 | 
[V:4] G,4G,4 | 
[V:5] z8 | 
[V:1] A8 | 
[V:2] ^F8 | 
[V:3] z8 | 
[V:4] D,4D,4 | 
[V:5] z8 | 
[V:1] z8 | 
[V:2] G4G4 | 
[V:3] z8 | 
[V:4] E,8 | 
[V:5] z8 | 
[V:1] ^F8 | 
[V:2] A6GF | 
[V:3] z8 | 
[V:4] D,8 | 
[V:5] z8 | 
[V:1] G4G4 | 
[V:2] E4G4 | 
[V:3] z8 | 
[V:4] z8 | 
[V:5] z8 | 
[V:1] A6GF | 
[V:2] F4D4 | 
[V:3] z8 | 
[V:4] D,8 | 
[V:5] z8 | 
[V:1] E8 | 
[V:2] ^C3DE2F2 | 
[V:3] z8 | 
[V:4] A,8 | 
[V:5] z8 | 
[V:1] z8 | 
[V:2] G2E3DC2 | 
[V:3] z8 | 
[V:4] G,4A,4 | 
[V:5] z8 | 
[V:1] z8 | 
[V:2] B,2E4D2 | 
[V:3] z8 | 
[V:4] E,2G,2F,4 | 
[V:5] z8 | 
[V:1] G6A2 | 
[V:2] E8 | 
[V:3] z8 | 
[V:4] E,8- | 
[V:5] z8 | 
[V:1] B4c4 | 
[V:2] z4E4 | 
[V:3] z8 | 
[V:4] E,4A,,4 | 
[V:5] z8 | 
[V:1] G3AB2c2 | 
[V:2] E2G3FE2 | 
[V:3] z8 | 
[V:4] E,8 | 
[V:5] z8 | 
[V:1] BAA4^G2 | 
[V:2] D2C2B,4 | 
[V:3] z8 | 
[V:4] z4E,4 | 
[V:5] z8 | 
[V:1] A8 | 
[V:2] A,3B,C2F2 | 
[V:3] z8 | 
[V:4] A,,6A,2- | 
[V:5] z8 | 
[V:1] z8 | 
[V:2] E2D4^C2 | 
[V:3] z8 | 
[V:4] A,G,F,2E,4 | 
[V:5] z8 | 
[V:1] A8 | 
[V:2] D4A,4 | 
[V:3] z8 | 
[V:4] D,6E,2 | 
[V:5] z8 | 
[V:1] A4A4 | 
[V:2] z2D4D2 | 
[V:3] z8 | 
[V:4] F,4D,4 | 
[V:5] z8 | 
[V:1] z8 | 
[V:2] E2F2GFED | 
[V:3] z8 | 
[V:4] C,2D,2B,,4 | 
[V:5] z8 | 
[V:1] A8 | 
[V:2] ^C4z2C2- | 
[V:3] z8 | 
[V:4] A,,8 | 
[V:5] z8 | 
[V:1] A4A4 | 
[V:2] C2D2E4 | 
[V:3] z8 | 
[V:4] z4A,4- | 
[V:5] z8 | 
[V:1] z8 | 
[V:2] C2F4E2 | 
[V:3] z8 | 
[V:4] A,2F,2G,4 | 
[V:5] z8 | 
[V:1] A8 | 
[V:2] F8 | 
[V:3] z8 | 
[V:4] F,8 | 
[V:5] z8 | 
[V:1] A4A4 | 
[V:2] z4F4- | 
[V:3] z8 | 
[V:4] F,6E,2 | 
[V:5] z8 | 
[V:1] z8 | 
[V:2] F2F2E4- | 
[V:3] z8 | 
[V:4] D,4C,4 | 
[V:5] z8 | 
[V:1] A6A2 | 
[V:2] E2C4A,2 | 
[V:3] z8 | 
[V:4] A,,8 | 
[V:5] z8 | 
[V:1] A4G4 | 
[V:2] C2D2B,4 | 
[V:3] z8 | 
[V:4] z4E,4 | 
[V:5] z8 | 
[V:1] A8 | 
[V:2] A,2D3FE2- | 
[V:3] z8 | 
[V:4] F,3E,D,2C,2 | 
[V:5] z8 | 
[V:1] z8 | 
[V:2] EDD4^C2 | 
[V:3] z8 | 
[V:4] D,4E,4 | 
[V:5] z8 | 
[V:1] A8 | 
[V:2] D8 | 
[V:3] z8 | 
[V:4] D,8 | 
[V:5] z8 | 
[V:1] A4A4 | 
[V:2] A,4C3D | 
[V:3] z8 | 
[V:4] z4A,,4 | 
[V:5] z8 | 
[V:1] G4G4 | 
[V:2] E4E4 | 
[V:3] z8 | 
[V:4] C,4C,4 | 
[V:5] z8 | 
[V:1] F4E2A2- | 
[V:2] D4C4 | 
[V:3] z8 | 
[V:4] D,4A,,2F,,2 | 
[V:5] z8 | 
[V:1] AGG3^FF2 | 
[V:2] G,2B,2A,4 | 
[V:3] z8 | 
[V:4] G,,4D,4 | 
[V:5] z8 | 
[V:1] G8 | 
[V:2] G,3A,B,2C2 | 
[V:3] z8 | 
[V:4] E,2C,2z2C,2 | 
[V:5] z8 | 
[V:1] z8 | 
[V:2] D2E3DC2 | 
[V:3] z8 | 
[V:4] B,,2C,2A,,4 | 
[V:5] z8 | 
[V:1] G8 | 
[V:2] B,4z4 | 
[V:3] z8 | 
[V:4] G,,4G,4- | 
[V:5] z8 | 
[V:1] G4G4 | 
[V:2] D4E2G2- | 
[V:3] z8 | 
[V:4] G,2F,2E,4 | 
[V:5] z8 | 
[V:1] A8 | 
[V:2] GFF2EDC2 | 
[V:3] z8 | 
[V:4] D,4C,2E,2 | 
[V:5] z8 | 
[V:1] z8 | 
[V:2] B,2D4^C2 | 
[V:3] z8 | 
[V:4] D,2F,2E,4 | 
[V:5] z8 | 
[V:1] A8 | 
[V:2] D8 | 
[V:3] z8 | 
[V:4] D,8- | 
[V:5] z8 | 
[V:1] A4A4 | 
[V:2] z4F4 | 
[V:3] z8 | 
[V:4] D,8 | 
[V:5] z8 | 
[V:1] B4G4 | 
[V:2] G3FE2D2- | 
[V:3] z8 | 
[V:4] G,,8 | 
[V:5] z8 | 
[V:1] A8 | 
[V:2] D2C2A,2D2 | 
[V:3] z8 | 
[V:4] z4D,4 | 
[V:5] z8 | 
[V:1] z8 | 
[V:2] CB,A,4^G,2 | 
[V:3] z8 | 
[V:4] A,,2C,2B,,4 | 
[V:5] z8 | 
[V:1] A4A4 | 
[V:2] A,4z2C2 | 
[V:3] z8 | 
[V:4] A,,8 | 
[V:5] z8 | 
[V:1] B4A2c2 | 
[V:2] D2E2FGA2- | 
[V:3] z8 | 
[V:4] z8 | 
[V:5] z8 | 
[V:1] B2G3FA2- | 
[V:2] AGG2E2F2 | 
[V:3] z8 | 
[V:4] z8 | 
[V:5] z8 | 
[V:1] A2F2E4 | 
[V:2] E2D4^C2 | 
[V:3] z8 | 
[V:4] z8 | 
[V:5] z8 | 
[V:1] D8 | 
[V:2] D8 | 
[V:3] z8 | 
[V:4] z8 | 
[V:5] z8 | 
[V:1] C8- | 
[V:2] z8 | 
[V:3] A8- | 
[V:4] E,8 | 
[V:5] A,,8- | 
[V:1] C8 | 
[V:2] z8 | 
[V:3] A8- | 
[V:4] E,8 | 
[V:5] A,,8 | 
[V:1] F8 | 
[V:2] D8 | 
[V:3] A8- | 
[V:4] D,8 | 
[V:5] D,,8- | 
[V:1] F8 | 
[V:2] A,8 | 
[V:3] A8 | 
[V:4] D,4D,4 | 
[V:5] D,,8 | 
[V:1] E8 | 
[V:2] A,8 | 
[V:3] E8- | 
[V:4] C,8 | 
[V:5] A,,8- | 
[V:1] C4E4 | 
[V:2] A,8 | 
[V:3] E8 | 
[V:4] z4C,4 | 
[V:5] A,,8 | 
[V:1] D6C2 | 
[V:2] z8 | 
[V:3] G8 | 
[V:4] D,8 | 
[V:5] B,,8 | 
[V:1] C6D2 | 
[V:2] E8 | 
[V:3] A8 | 
[V:4] E,8 | 
[V:5] A,,6B,,2 | 
[V:1] E4F4 | 
[V:2] E4D4 | 
[V:3] A4B4 | 
[V:4] z8 | 
[V:5] C,4D,4 | 
[V:1] E8 | 
[V:2] C8 | 
[V:3] c4A4- | 
[V:4] z8 | 
[V:5] E,4C,4 | 
[V:1] D8 | 
[V:2] D8 | 
[V:3] A4^G4 | 
[V:4] D,8 | 
[V:5] B,,8 | 
[V:1] z8 | 
[V:2] ^C4E4- | 
[V:3] A8 | 
[V:4] E,6F,2 | 
[V:5] A,,8 | 
[V:1] z8 | 
[V:2] E2F2G4 | 
[V:3] z8 | 
[V:4] G,4E,4 | 
[V:5] z8 | 
[V:1] z8 | 
[V:2] A4F4 | 
[V:3] z8 | 
[V:4] F,4D,4 | 
[V:5] z8 | 
[V:1] A8 | 
[V:2] E4C4 | 
[V:3] A8 | 
[V:4] z4A,4 | 
[V:5] A,,8 | 
[V:1] A4A4 | 
[V:2] E8 | 
[V:3] c6B2 | 
[V:4] A,4A,4 | 
[V:5] A,,4C,4 | 
[V:1] A4B4 | 
[V:2] D8 | 
[V:3] A4G4 | 
[V:4] D,8 | 
[V:5] D,4B,,4 | 
[V:1] c4A4 | 
[V:2] z4C4 | 
[V:3] A8 | 
[V:4] E,4z4 | 
[V:5] A,,8 | 
[V:1] F4E3F | 
[V:2] D4A,2C2- | 
[V:3] z8 | 
[V:4] z8 | 
[V:5] z8 | 
[V:1] G2A4^G2 | 
[V:2] CB,A,2B,4 | 
[V:3] z8 | 
[V:4] z8 | 
[V:5] z8 | 
[V:1] A8 | 
[V:2] A,8 | 
[V:3] A6B2 | 
[V:4] A,8 | 
[V:5] A,,8 | 
[V:1] z8 | 
[V:2] z8 | 
[V:3] c4B4 | 
[V:4] A,6G,F, | 
[V:5] F,,4G,,4 | 
[V:1] E8 | 
[V:2] A,4C4 | 
[V:3] c8 | 
[V:4] E,4E,4 | 
[V:5] A,,8 | 
[V:1] F4A4 | 
[V:2] D2E2F4 | 
[V:3] A8 | 
[V:4] D,8 | 
[V:5] D,,8 | 
[V:1] G4E2G2 | 
[V:2] E2G3FE2 | 
[V:3] z8 | 
[V:4] z8 | 
[V:5] z8 | 
[V:1] A2F2E4 | 
[V:2] C2D4^C2 | 
[V:3] z8 | 
[V:4] z8 | 
[V:5] z8 | 
[V:1] D8 | 
[V:2] D4F4- | 
[V:3] A6G2 | 
[V:4] D,8 | 
[V:5] D,,6E,,2 | 
[V:1] z8 | 
[V:2] F2E2E4 | 
[V:3] A6c2- | 
[V:4] D,4C,4 | 
[V:5] F,,3G,,A,,4- | 
[V:1] z8 | 
[V:2] C4D4 | 
[V:3] c2A4^G2 | 
[V:4] A,,4D,4 | 
[V:5] A,,2C,2B,,4 | 
[V:1] z8 | 
[V:2] C4A,4- | 
[V:3] A8 | 
[V:4] E,4C,4 | 
[V:5] A,,8 | 
[V:1] z8 | 
[V:2] A,2D2E2C2 | 
[V:3] z8 | 
[V:4] D,4C,2F,2- | 
[V:5] z8 | 
[V:1] z8 | 
[V:2] D2F4E2 | 
[V:3] z8 | 
[V:4] F,2A,2G,4 | 
[V:5] z8 | 
[V:1] z8 | 
[V:2] F8 | 
[V:3] A8 | 
[V:4] F,6E,D, | 
[V:5] F,,6G,,2 | 
[V:1] z8 | 
[V:2] z8 | 
[V:3] A4G2c2- | 
[V:4] C,2D,2E,4- | 
[V:5] A,,3B,,C,4 | 
[V:1] z8 | 
[V:2] z8 | 
[V:3] c2d2e2d2- | 
[V:4] E,2A,3G,F,2 | 
[V:5] A,,3B,,C,2D,2 | 
[V:1] z8 | 
[V:2] z8 | 
[V:3] dcc3BB2 | 
[V:4] G,2A,2F,4 | 
[V:5] E,2F,2D,4 | 
[V:1] G8 | 
[V:2] E8 | 
[V:3] c8 | 
[V:4] G,8 | 
[V:5] C,8 | 
[V:1] G4A4 | 
[V:2] E4F4 | 
[V:3] z8 | 
[V:4] z8 | 
[V:5] z8 | 
[V:1] _B4B4 | 
[V:2] G4D4 | 
[V:3] G8 | 
[V:4] G,8 | 
[V:5] G,,8 | 
[V:1] A4A4 | 
[V:2] D4E4 | 
[V:3] A4c4 | 
[V:4] F,4E,4 | 
[V:5] D,,4A,,4 | 
[V:1] A4G2F2 | 
[V:2] A,4B,2D2 | 
[V:3] c4B2A2 | 
[V:4] F,2E,2D,4 | 
[V:5] F,,4G,,4 | 
[V:1] E4E4 | 
[V:2] A,4C4 | 
[V:3] c8 | 
[V:4] C,4E,4 | 
[V:5] A,,4A,,4 | 
[V:1] F4A4 | 
[V:2] D6F2- | 
[V:3] z8 | 
[V:4] D,8 | 
[V:5] D,,8 | 
[V:1] G2E2F4 | 
[V:2] FEE4D2 | 
[V:3] z8 | 
[V:4] z8 | 
[V:5] z8 | 
[V:1] E8 | 
[V:2] E2C4D2 | 
[V:3] A4A2B2 | 
[V:4] z8 | 
[V:5] A,,6G,,2 | 
[V:1] z8 | 
[V:2] C2A,4F,2 | 
[V:3] A4c4 | 
[V:4] z8 | 
[V:5] A,,4F,,4 | 
[V:1] z8 | 
[V:2] E,2G,4^F,2 | 
[V:3] G4A4 | 
[V:4] z8 | 
[V:5] G,,4D,4 | 
[V:1] G8 | 
[V:2] G,6A,2 | 
[V:3] G8 | 
[V:4] G,8 | 
[V:5] G,,8 | 
[V:1] G4G4 | 
[V:2] B,4C4 | 
[V:3] z8 | 
[V:4] E,4C,4 | 
[V:5] z8 | 
[V:1] A4B4 | 
[V:2] C4D4 | 
[V:3] z8 | 
[V:4] F,2A,4G,2 | 
[V:5] z8 | 
[V:1] c4c4 | 
[V:2] C4F4 | 
[V:3] A8 | 
[V:4] A,4F,4 | 
[V:5] F,,8 | 
[V:1] B4B4 | 
[V:2] D4E2G2 | 
[V:3] G4E4 | 
[V:4] z4G,4 | 
[V:5] G,,8 | 
[V:1] A8 | 
[V:2] F2D4CB, | 
[V:3] F8 | 
[V:4] A,4A,4- | 
[V:5] D,,8 | 
[V:1] A4z4 | 
[V:2] ^C6E2- | 
[V:3] E8 | 
[V:4] A,2G,2E,4 | 
[V:5] A,,8 | 
[V:1] A4A4 | 
[V:2] E2D4D2 | 
[V:3] z8 | 
[V:4] F,8 | 
[V:5] D,,8 | 
[V:1] G4E4 | 
[V:2] E2G3FG2 | 
[V:3] z8 | 
[V:4] E,4C,4- | 
[V:5] z8 | 
[V:1] G4F4 | 
[V:2] EDE4D2- | 
[V:3] z8 | 
[V:4] C,4D,4 | 
[V:5] z8 | 
[V:1] E8 | 
[V:2] D2^CDC2B,2 | 
[V:3] z8 | 
[V:4] A,,8 | 
[V:5] z8 | 
[V:1] D8 | 
[V:2] D2z2D3C | 
[V:3] z8 | 
[V:4] B,,4G,,4- | 
[V:5] z8 | 
[V:1] z8 | 
[V:2] B,4A,4 | 
[V:3] z8 | 
[V:4] G,,4C,4 | 
[V:5] z8 | 
[V:1] z8 | 
[V:2] G,4C4 | 
[V:3] z8 | 
[V:4] B,,4A,,4 | 
[V:5] z8 | 
[V:1] z8 | 
[V:2] B,4A,4 | 
[V:3] z8 | 
[V:4] G,,4C,4 | 
[V:5] z8 | 
[V:1] z8 | 
[V:2] D4E4 | 
[V:3] z8 | 
[V:4] B,,4A,,4 | 
[V:5] z8 | 
[V:1] z8 | 
[V:2] F4G4 | 
[V:3] z8 | 
[V:4] D,4E,4 | 
[V:5] z8 | 
[V:1] z8 | 
[V:2] z4D4 | 
[V:3] z8 | 
[V:4] F,4G,4 | 
[V:5] z8 | 
[V:1] z8 | 
[V:2] E2G4F2 | 
[V:3] z8 | 
[V:4] G,2B,2A,4 | 
[V:5] z8 | 
[V:1] z8 | 
[V:2] G2E2F2A2- | 
[V:3] z8 | 
[V:4] G,4D,2F,2 | 
[V:5] z8 | 
[V:1] z8 | 
[V:2] AGE2F2E2- | 
[V:3] z8 | 
[V:4] E,2C,2D,2A,,2 | 
[V:5] z8 | 
[V:1] z8 | 
[V:2] EDD4^C2 | 
[V:3] z8 | 
[V:4] C,2D,2E,4 | 
[V:5] z8 | 
[V:1] A6G2 | 
[V:2] D8 | 
[V:3] z8 | 
[V:4] D,8 | 
[V:5] D,8 | 
[V:1] F4E4 | 
[V:2] z8 | 
[V:3] z8 | 
[V:4] z4A,,4 | 
[V:5] D,4C,4 | 
[V:1] D4G4 | 
[V:2] z8 | 
[V:3] z8 | 
[V:4] A,4G,2E,2 | 
[V:5] D,2F,2E,4 | 
[V:1] F4E4 | 
[V:2] z8 | 
[V:3] z8 | 
[V:4] F,2A,4G,2 | 
[V:5] D,4C,2B,,2 | 
[V:1] A4B4 | 
[V:2] z8 | 
[V:3] z8 | 
[V:4] ^F,4G,4 | 
[V:5] A,,4G,,4 | 
[V:1] c4B4 | 
[V:2] z8 | 
[V:3] z8 | 
[V:4] A,4G,4 | 
[V:5] F,,4G,,4 | 
[V:1] A4F2G2- | 
[V:2] z8 | 
[V:3] z8 | 
[V:4] F,2A,4G,2 | 
[V:5] D,6E,2 | 
[V:1] GFE2D2CD | 
[V:2] z8 | 
[V:3] z8 | 
[V:4] E,2G,2F,4 | 
[V:5] C,4D,4 | 
[V:1] E4C4 | 
[V:2] z8 | 
[V:3] z8 | 
[V:4] E,4A,4- | 
[V:5] C,4A,,4 | 
[V:1] B,8 | 
[V:2] z8 | 
[V:3] z8 | 
[V:4] A,2^G,2G,2^F,2 | 
[V:5] E,8 | 
[V:1] A,8 | 
[V:2] E6E2 | 
[V:3] z8 | 
[V:4] A,8 | 
[V:5] A,,8 | 
[V:1] z8 | 
[V:2] E4E4 | 
[V:3] z8 | 
[V:4] z8 | 
[V:5] A,,8 | 
[V:1] E6E2 | 
[V:2] E2E2E4 | 
[V:3] z8 | 
[V:4] z8 | 
[V:5] z4C,4 | 
[V:1] E4E4 | 
[V:2] G4G4 | 
[V:3] z8 | 
[V:4] z8 | 
[V:5] C,8- | 
[V:1] E2E2E4 | 
[V:2] G4G4 | 
[V:3] z8 | 
[V:4] z8 | 
[V:5] C,8 | 
[V:1] G4G4 | 
[V:2] E4E4 | 
[V:3] z8 | 
[V:4] z8 | 
[V:5] C,8 | 
[V:1] G4G4 | 
[V:2] D4D4 | 
[V:3] z8 | 
[V:4] z8 | 
[V:5] G,,8 | 
[V:1] E4E4 | 
[V:2] ^C4C4 | 
[V:3] z8 | 
[V:4] z8 | 
[V:5] z4A,,4 | 
[V:1] D4D4 | 
[V:2] D4F4 | 
[V:3] z8 | 
[V:4] z8 | 
[V:5] D,,8 | 
[V:1] ^C4C4 | 
[V:2] E4E4 | 
[V:3] z8 | 
[V:4] z8 | 
[V:5] z4A,,4 | 
[V:1] D4F4 | 
[V:2] D8 | 
[V:3] z8 | 
[V:4] z8 | 
[V:5] B,,4D,4- | 
[V:1] E4E4 | 
[V:2] z4E4 | 
[V:3] z8 | 
[V:4] z8 | 
[V:5] D,2^C,2C,4 | 
[V:1] D8 | 
[V:2] F4F4 | 
[V:3] D8 | 
[V:4] A,6G,F, | 
[V:5] D,8 | 
[V:1] z8 | 
[V:2] G4E4 | 
[V:3] E8 | 
[V:4] E,4C,4 | 
[V:5] C,8 | 
[V:1] z8 | 
[V:2] D4D4 | 
[V:3] G8 | 
[V:4] D,8 | 
[V:5] B,,8 | 
[V:1] E8 | 
[V:2] ^C8- & E8- | 
[V:3] A8 | 
[V:4] E,8 | 
[V:5] A,,8- | 
[V:1] A4A4 | 
[V:2] C8 & E8 | 
[V:3] A6B2 | 
[V:4] z4C,4 | 
[V:5] A,,8 | 
[V:1] A4B3A | 
[V:2] z8 | 
[V:3] c4d4 | 
[V:4] A,,4G,,4 | 
[V:5] z8 | 
[V:1] A4A4- | 
[V:2] E8 | 
[V:3] c8 | 
[V:4] A,,8 | 
[V:5] z8 | 
[V:1] A2^G2G4 | 
[V:2] E4E4 | 
[V:3] B8 | 
[V:4] E,8 | 
[V:5] z8 | 
[V:1] A8 | 
[V:2] E4F4 | 
[V:3] c4d4 | 
[V:4] A,,4D,4 | 
[V:5] z8 | 
[V:1] z8 | 
[V:2] E4D4 | 
[V:3] c4d4- | 
[V:4] E,4F,2G,2- | 
[V:5] z8 | 
[V:1] z8 | 
[V:2] B,2C2D4 | 
[V:3] d2c4B2 | 
[V:4] G,2E,2D,4 | 
[V:5] z8 | 
[V:1] G8 | 
[V:2] E4E4 | 
[V:3] c8 | 
[V:4] C,8 | 
[V:5] C,8 | 
[V:1] G4G4 | 
[V:2] E8 | 
[V:3] c6d2 | 
[V:4] G,8 | 
[V:5] C,8 | 
[V:1] A4G4 | 
[V:2] C4C4 | 
[V:3] e4e4 | 
[V:4] z8 | 
[V:5] A,,4C,4 | 
[V:1] F4E4- | 
[V:2] A,6B,2 | 
[V:3] d4e4 | 
[V:4] z8 | 
[V:5] D,4A,,4- | 
[V:1] E2F2G4 | 
[V:2] C4D4 | 
[V:3] c2A2B4 | 
[V:4] z8 | 
[V:5] A,,4G,,4 | 
[V:1] A2F2E4 | 
[V:2] F4G2E2 | 
[V:3] A2A2G2A2- | 
[V:4] z8 | 
[V:5] F,,4C,4 | 
[V:1] A4B4 | 
[V:2] F4G4 | 
[V:3] A2c2d2e2- | 
[V:4] z8 | 
[V:5] A,,4G,,4 | 
[V:1] G2c3BB2- | 
[V:2] E2F2G4 | 
[V:3] e2c2d4 | 
[V:4] z8 | 
[V:5] C,4G,,4 | 
[V:1] BAA4^G2 | 
[V:2] E8 | 
[V:3] c4B4 | 
[V:4] z8 | 
[V:5] A,,4E,,4 | 
[V:1] A4E4 | 
[V:2] z4C4 | 
[V:3] A2B2c4 | 
[V:4] z8 | 
[V:5] F,,4A,,4 | 
[V:1] G8 | 
[V:2] D6B,2 | 
[V:3] B8 | 
[V:4] G,8 | 
[V:5] G,,8 | 
[V:1] A8 | 
[V:2] D2E2F4 | 
[V:3] A8 | 
[V:4] F,4A,4 | 
[V:5] D,,8 | 
[V:1] z4D4 | 
[V:2] E3DD4- | 
[V:3] B4A4- | 
[V:4] G,4F,4 | 
[V:5] z4D,,4 | 
[V:1] E8 | 
[V:2] D4^C4 | 
[V:3] A4A4 | 
[V:4] E,8 | 
[V:5] A,,8 | 
[V:1] ^F8- | 
[V:2] D8- | 
[V:3] A8- | 
[V:4] D,8- | 
[V:5] D,,8- | 
[V:1] F8 | 
[V:2] D8- | 
[V:3] A8- | 
[V:4] D,8- | 
[V:5] D,,8- | 
[V:1] A8 |]  
[V:2] D8 |]  
[V:3] A8 |]  
[V:4] D,8 |]  
[V:5] D,,8 |]  
